public/images/logos/logo-sothebys.svg

<svg width="522" height="114" viewBox="0 0 522 114" fill="none" xmlns="http://www.w3.org/2000/svg">
<path d="M134.663 39.3985L157.363 15.5838H159.509V29.7089H179.07V41.5348H159.509V71.1405C159.504 75.6301 160.025 77.4845 161.785 79.2522C163.382 80.8409 165.919 81.6868 169.743 81.6868C174.132 81.6868 177.424 80.2878 180.787 78.7154V90.5847C176.294 93.1007 171.096 94.402 165.403 94.402C158.993 94.402 153.865 92.591 150.481 89.1912C147.048 85.7372 145.614 82.4188 145.614 74.7029V41.5348H134.663V39.3985ZM316.53 86.9898C308.523 92.3036 300.81 94.402 291.119 94.402C269.971 94.402 259.194 77.8803 259.194 61.825C259.194 42.6681 272.09 28.4509 290 28.4509C307.203 28.4509 318.426 42.4729 316.9 65.0512H273.665C274.556 74.8222 281.297 81.3126 293.08 81.3126C301.228 81.3126 309.506 78.6069 316.53 73.4341V86.9898ZM289.245 40.9872C281.015 40.9872 275.376 46.3119 273.942 54.7435H303.145C302.374 46.1058 297.154 40.9872 289.245 40.9872ZM345.331 80.1523C348.982 81.2693 353.241 81.638 357.309 81.638C368.407 81.638 375.056 73.1033 375.056 60.7893C375.056 47.7054 369.01 41.1227 359.384 41.1227C354.408 41.1227 349.943 42.7928 345.331 46.7673V80.1523ZM345.331 34.3341C350.666 30.4246 355.723 28.4509 361.905 28.4509C377.408 28.4509 389.087 41.2854 389.087 59.6615C389.087 79.9408 375.561 94.5376 355.348 94.5376C347.765 94.5376 337.058 92.6289 331.441 89.8365V0.889463H345.331V34.3341ZM463.779 30.5547L472.416 0.889463H487.251L474.073 30.5547" fill="white"/>
<path d="M505.606 55.9416C517.769 61.7706 521.538 67.2145 521.538 74.6268C521.538 84.9833 512.923 94.4018 499.783 94.4018C493.194 94.4018 485.54 92.5203 478.353 89.0392V74.5997C485.507 79.6315 493.889 81.9143 498.8 81.9143C504.655 81.9143 507.649 79.2953 507.649 75.798C507.649 71.8777 505.014 70.2185 498.707 67.3284C485.545 61.25 479.01 56.1639 479.01 46.5394C479.01 36.8932 487.827 28.4507 500.114 28.4507C506.573 28.4507 511.896 29.4321 518.638 33.065V46.5719C511.326 42.6679 507.198 40.6074 500.82 40.6074C495.502 40.6074 492.949 42.9498 492.949 46.0731C492.949 49.5379 494.997 50.8555 505.606 55.9416ZM416.986 113.635H402.07L417.649 81.0793L392.297 29.7141H408.442L424.586 66.0704L439.763 29.7141H454.816L416.986 113.635ZM97.2785 28.4561C117.296 28.4561 129.475 44.3867 129.475 61.4235C129.475 78.4712 117.296 94.4018 97.2785 94.4018C77.2557 94.4018 65.0823 78.4712 65.0823 61.4235C65.0823 44.3867 77.2557 28.4561 97.2785 28.4561ZM97.2785 41.5455C86.8271 41.5455 79.586 50.0313 79.586 61.4235C79.586 72.8266 86.8271 81.307 97.2785 81.307C107.73 81.307 114.971 72.8266 114.971 61.4235C114.971 50.0313 107.73 41.5455 97.2785 41.5455Z" fill="white"/>
<path d="M207.285 38.265C211.929 32.615 220.077 28.4507 227.47 28.4507C242.425 28.4507 247.488 39.6965 247.488 51.0507V93.1438H233.587V56.6031C233.587 45.726 230.366 41.54 222.543 41.54C217.383 41.54 211.989 44.8259 207.285 50.0747V93.1438H193.389V0.889253H207.285V38.265ZM55.8803 67.7784C55.8803 82.5108 43.256 94.3964 26.5577 94.3964C17.1438 94.3964 8.3872 91.49 0 87.6131V71.189C9.0282 76.5029 17.2742 80.3256 26.9814 80.3256C35.6891 80.3256 40.3607 75.0172 40.3607 68.5864C40.3607 51.1158 0.711604 52.3466 0.711604 26.3523C0.711604 12.0158 12.923 0 29.9147 0C37.9 0 44.8314 2.01166 51.8225 5.68254V21.662C46.0156 17.1723 37.2698 14.0816 30.1374 14.0816C20.4302 14.0816 16.1606 18.9292 16.1606 24.8286C16.1606 41.6268 55.8803 40.0218 55.8803 67.7784Z" fill="white"/>
</svg>

<svg xmlns="http://www.w3.org/2000/svg" width="522" height="114" fill="none" viewBox="0 0 522 114"><path fill="#fff" d="m134.663 39.399 22.7-23.815h2.146v14.125h19.561v11.826h-19.561V71.14c-.005 4.49.516 6.343 2.276 8.111 1.597 1.589 4.134 2.435 7.958 2.435 4.389 0 7.681-1.4 11.044-2.972v11.87c-4.493 2.516-9.691 3.817-15.384 3.817-6.41 0-11.538-1.811-14.922-5.21-3.433-3.455-4.867-6.773-4.867-14.49V41.536h-10.951zm181.867 47.59c-8.007 5.315-15.72 7.413-25.411 7.413-21.148 0-31.925-16.522-31.925-32.577 0-19.157 12.896-33.374 30.806-33.374 17.203 0 28.426 14.022 26.9 36.6h-43.235c.891 9.771 7.632 16.262 19.415 16.262 8.148 0 16.426-2.706 23.45-7.879zm-27.285-46.002c-8.23 0-13.869 5.325-15.303 13.756h29.203c-.771-8.637-5.991-13.756-13.9-13.756m56.086 39.165c3.651 1.117 7.91 1.486 11.978 1.486 11.098 0 17.747-8.535 17.747-20.849 0-13.084-6.046-19.666-15.672-19.666-4.976 0-9.441 1.67-14.053 5.644zm0-45.818c5.335-3.91 10.392-5.883 16.574-5.883 15.503 0 27.182 12.834 27.182 31.21 0 20.28-13.526 34.877-33.739 34.877-7.583 0-18.29-1.91-23.907-4.701V.889h13.89zm118.448-3.78L472.416.89h14.835l-13.178 29.666m31.533 25.386c12.163 5.829 15.932 11.273 15.932 18.685 0 10.356-8.615 19.775-21.755 19.775-6.589 0-14.243-1.882-21.43-5.363V74.6c7.154 5.032 15.536 7.315 20.447 7.315 5.855 0 8.849-2.619 8.849-6.116 0-3.92-2.635-5.58-8.942-8.47-13.162-6.078-19.697-11.164-19.697-20.789 0-9.646 8.817-18.088 21.104-18.088 6.459 0 11.782.981 18.524 4.614v13.507c-7.312-3.904-11.44-5.965-17.818-5.965-5.318 0-7.871 2.343-7.871 5.466 0 3.465 2.048 4.782 12.657 9.869m-88.62 57.693H402.07l15.579-32.556-25.352-51.365h16.145l16.144 36.356 15.177-36.356h15.053zM97.279 28.456c20.017 0 32.196 15.93 32.196 32.968 0 17.047-12.179 32.978-32.196 32.978-20.023 0-32.197-15.93-32.197-32.979 0-17.036 12.174-32.967 32.197-32.967m0 13.09c-10.452 0-17.693 8.485-17.693 19.877 0 11.404 7.241 19.884 17.692 19.884s17.693-8.48 17.693-19.884c0-11.392-7.241-19.878-17.693-19.878m110.007-3.28c4.644-5.65 12.792-9.814 20.185-9.814 14.955 0 20.018 11.246 20.018 22.6v42.093h-13.901v-36.54c0-10.878-3.221-15.064-11.044-15.064-5.16 0-10.554 3.286-15.258 8.535v43.069h-13.896V.889h13.896zM55.88 67.778c0 14.733-12.624 26.618-29.322 26.618-9.414 0-18.17-2.906-26.558-6.783V71.19c9.028 5.314 17.274 9.137 26.981 9.137 8.708 0 13.38-5.309 13.38-11.74 0-17.47-39.65-16.24-39.65-42.234C.712 12.016 12.924 0 29.916 0 37.9 0 44.83 2.012 51.823 5.683v15.979c-5.807-4.49-14.553-7.58-21.686-7.58-9.707 0-13.976 4.847-13.976 10.747 0 16.798 39.72 15.193 39.72 42.95"/></svg>
